X:1
T:Title
%%score ( 1 2 ) { 3 | ( 4 5 ) }
L:1/8
M:4/4
K:G
V:1 treble nm="Grand Piano, Unnamed-000"
V:2 treble 
V:3 treble nm="Choir Pad, Unnamed-001"
V:4 bass 
V:5 bass 
V:1
 [DG]4 [DA]4 | [GB]2 [FA]2 [GB]2 [Fd]2 | e4 z4 | [Gd]2 [Ge]2 [Ec]4 | [Ec]2 [Dd]2 [DB]4 | %5
w: By~Johann~Georg~Ebeling,~1666 *|||||
 [GB]2 [Dd]2 [Ec]2 [DB]2 | [DA]4 [B,G]4- | [B,G]2 [Gd]4 [Gc]2- | [Gc]2 [GB]2- [GB][FA] [EG]2 | %9
w: ||||
 [DF]2 D2 ^C2 D2- | D2 [Gd]2 [Ge]2 [Ec]2- | [Ec]2 [Gc]2 [Ad]2 [GB]2- | [GB]2 [DB]2 [FA]2 [Gc]2 | %13
w: ||||
 [GB]2 A2- [FA]2 G2- | G6 z2 |] %15
w: ||
V:2
 x8 | x8 | G2 A2 [Fd]4 | x8 | x8 | x8 | x8 | x8 | x8 | z2 E4 z2 | x8 | x8 | x8 | z2 G2 z4 | x8 |] %15
V:3
 B,4 A,4 | D2 D2 D2 D2 | D2 ^C2 D4 | B,2 B,2 A,4 | C2 A,2 B,4 | D2 G,2 G,2 G,2 | G,2 F,2 G,4- | %7
 G,2 B,4[K:treble] E2- | E2 .D4 B,2 | A,2[K:bass] B,2 A,2 F,2- | F,2 D2 B,2[K:treble] C2- | %11
 C2 E2 D2 D2- | D2 B,2 D2 E2 | D2 D4 B,2- | B,6 z2 |] %15
V:4
 G,4 F,4 | G,2 D,2 G,2 B,2 | A,4 D,4 | G,2 E,2 z4 | A,2 F,2 G,4 | G,2 B,,2 C,2 G,,2 | D,4 G,,4- | %7
 G,,2 G,4 C,2- | C,2 G,2 z C E,2 | F,2 G,2 z2 D,2- | D,2 B,2 G,2 A,2- | A,2 E,2 F,2 G,2- | %12
 G,2 G,2 D,2 C,2 | G,2 D,4 G,,2- | G,,6 z2 |] %15
V:5
 x8 | x8 | x8 | x8 | x8 | x8 | x8 | x8 | z4 D,2 z2 | x8 | x8 | x8 | x8 | x8 | x8 |] %15

